X: 35988
T: Sass Is Back
R: reel
M: 4/4
K: Cmajor
|:c2 Bc AEcB|AEGD B,DGB|c2 Bc AEcE|DB, G,A, B,A, A,2|
c2 Bc AEcB|AEGD B,DGB|cE E2 DB,GB,|G,A,B,G, CA, A,2:|
|:G,2 (3B,A,G, DG,B,D|GE E2 c2 BG|D2 B,D EDB,B|cABG AEGD|
G,2 (3B,A,G, DG,B,D|GE E2 (3edB dB|D2 B,D EDB,c|BddB AE Gz:|

